Themes/OneUI/assets/svg/scroll-to-bottom-dark.svg

<?xml version="1.0" encoding="UTF-8" standalone="no"?>
<svg
   width="132"
   height="132"
   viewBox="0 0 132 132"
   fill="none"
   version="1.1"
   id="svg1841"
   sodipodi:docname="scroll-to-bottom-dark.svg"
   xmlns:inkscape="http://www.inkscape.org/namespaces/inkscape"
   xmlns:sodipodi="http://sodipodi.sourceforge.net/DTD/sodipodi-0.dtd"
   xmlns="http://www.w3.org/2000/svg"
   xmlns:svg="http://www.w3.org/2000/svg">
  <sodipodi:namedview
     id="namedview1843"
     pagecolor="#ffffff"
     bordercolor="#666666"
     borderopacity="1.0"
     inkscape:showpageshadow="2"
     inkscape:pageopacity="0.0"
     inkscape:pagecheckerboard="0"
     inkscape:deskcolor="#d1d1d1" />
  <g
     clip-path="url(#clip0_1_627)"
     id="g1834">
    <path
       d="m 129,66 c 0,8.2733 -1.63,16.4655 -4.796,24.1091 -3.166,7.6435 -7.806,14.5889 -13.656,20.4389 -5.85,5.85 -12.7954,10.49 -20.4389,13.656 C 82.4655,127.37 74.2733,129 66,129 57.7267,129 49.5345,127.37 41.8909,124.204 34.2474,121.038 27.3024,116.398 21.4523,110.548 15.6022,104.698 10.9616,97.7526 7.79559,90.1091 4.62954,82.4655 3,74.2733 3,66 3,57.7267 4.62954,49.5345 7.79559,41.8909 10.9616,34.2474 15.6022,27.3024 21.4523,21.4523 27.3024,15.6022 34.2474,10.9616 41.8909,7.79559 49.5345,4.62954 57.7267,3 66,3 c 8.2733,0 16.4655,1.62954 24.1091,4.79559 7.6435,3.16601 14.5889,7.80661 20.4389,13.65671 5.85,5.8501 10.49,12.7951 13.656,20.4386 C 127.37,49.5345 129,57.7267 129,66"
       fill="#3d3d3d"
       id="path1826" />
    <path
       d="m 129,66 c 0,8.2733 -1.63,16.4655 -4.796,24.1091 -3.166,7.6435 -7.806,14.5889 -13.656,20.4389 -5.85,5.85 -12.7954,10.49 -20.4389,13.656 C 82.4655,127.37 74.2733,129 66,129 57.7267,129 49.5345,127.37 41.8909,124.204 34.2474,121.038 27.3024,116.398 21.4523,110.548 15.6022,104.698 10.9616,97.7526 7.79559,90.1091 4.62954,82.4655 3,74.2733 3,66 3,57.7267 4.62954,49.5345 7.79559,41.8909 10.9616,34.2474 15.6022,27.3024 21.4523,21.4523 27.3024,15.6022 34.2474,10.9616 41.8909,7.79559 49.5345,4.62954 57.7267,3 66,3 c 8.2733,0 16.4655,1.62954 24.1091,4.79559 7.6435,3.16601 14.5889,7.80661 20.4389,13.65671 5.85,5.8501 10.49,12.7951 13.656,20.4386 C 127.37,49.5345 129,57.7267 129,66"
       stroke="#ffffff"
       stroke-width="6"
       id="path1828" />
    <path
       d="m 84.75,80.4 h -37.5 c -0.5967,0 -1.169,-0.237 -1.591,-0.659 C 45.2371,79.3191 45,78.7468 45,78.15 45,77.5533 45.2371,76.981 45.659,76.559 46.081,76.1371 46.6533,75.9 47.25,75.9 h 37.5 c 0.5967,0 1.169,0.2371 1.591,0.659 0.4219,0.422 0.659,0.9943 0.659,1.591 0,0.5968 -0.2371,1.1691 -0.659,1.591 -0.422,0.422 -0.9943,0.659 -1.591,0.659 z"
       fill="#aaaaaa"
       id="path1830" />
    <path
       d="m 69.27,72.39 c -1.68,1.77 -4.41,1.87 -6.21,0.31 L 62.73,72.39 46.26,55.05 c -0.91,-0.96 -0.87,-2.48 0.09,-3.39 0.87,-0.83 2.21,-0.87 3.13,-0.15 L 49.74,51.75 66,68.86 82.26,51.75 c 0.83,-0.88 2.16,-0.99 3.12,-0.32 l 0.27,0.23 c 0.88,0.83 0.99,2.16 0.32,3.12 l -0.23,0.27 z"
       fill="#fafafa"
       id="path1832" />
  </g>
  <defs
     id="defs1839">
    <clipPath
       id="clip0_1_627">
      <rect
         width="132"
         height="132"
         fill="#ffffff"
         id="rect1836"
         x="0"
         y="0" />
    </clipPath>
  </defs>
</svg>

<svg width="132" height="132" viewBox="0 0 132 132" fill="none" xmlns="http://www.w3.org/2000/svg">
<g clip-path="url(#clip0_1_627)">
<path d="M129 66C129 74.2733 127.37 82.4655 124.204 90.1091C121.038 97.7526 116.398 104.698 110.548 110.548C104.698 116.398 97.7526 121.038 90.1091 124.204C82.4655 127.37 74.2733 129 66 129C57.7267 129 49.5345 127.37 41.8909 124.204C34.2474 121.038 27.3024 116.398 21.4523 110.548C15.6022 104.698 10.9616 97.7526 7.79559 90.1091C4.62954 82.4655 3 74.2733 3 66C3 57.7267 4.62954 49.5345 7.79559 41.8909C10.9616 34.2474 15.6022 27.3024 21.4523 21.4523C27.3024 15.6022 34.2474 10.9616 41.8909 7.79559C49.5345 4.62954 57.7267 3 66 3C74.2733 3 82.4655 4.62954 90.1091 7.79559C97.7526 10.9616 104.698 15.6022 110.548 21.4523C116.398 27.3024 121.038 34.2474 124.204 41.8909C127.37 49.5345 129 57.7267 129 66" fill="#3D3D3D"/>
<path d="M129 66C129 74.2733 127.37 82.4655 124.204 90.1091C121.038 97.7526 116.398 104.698 110.548 110.548C104.698 116.398 97.7526 121.038 90.1091 124.204C82.4655 127.37 74.2733 129 66 129C57.7267 129 49.5345 127.37 41.8909 124.204C34.2474 121.038 27.3024 116.398 21.4523 110.548C15.6022 104.698 10.9616 97.7526 7.79559 90.1091C4.62954 82.4655 3 74.2733 3 66C3 57.7267 4.62954 49.5345 7.79559 41.8909C10.9616 34.2474 15.6022 27.3024 21.4523 21.4523C27.3024 15.6022 34.2474 10.9616 41.8909 7.79559C49.5345 4.62954 57.7267 3 66 3C74.2733 3 82.4655 4.62954 90.1091 7.79559C97.7526 10.9616 104.698 15.6022 110.548 21.4523C116.398 27.3024 121.038 34.2474 124.204 41.8909C127.37 49.5345 129 57.7267 129 66" stroke="white" stroke-width="6"/>
<path d="M84.75 80.4H47.25C46.6533 80.4 46.081 80.163 45.659 79.741C45.2371 79.3191 45 78.7468 45 78.15C45 77.5533 45.2371 76.981 45.659 76.559C46.081 76.1371 46.6533 75.9 47.25 75.9H84.75C85.3467 75.9 85.919 76.1371 86.341 76.559C86.7629 76.981 87 77.5533 87 78.15C87 78.7468 86.7629 79.3191 86.341 79.741C85.919 80.163 85.3467 80.4 84.75 80.4Z" fill="#AAAAAA"/>
<path d="M69.27 72.39C67.59 74.16 64.86 74.26 63.06 72.7L62.73 72.39L46.26 55.05C45.35 54.09 45.39 52.57 46.35 51.66C47.22 50.83 48.56 50.79 49.48 51.51L49.74 51.75L66 68.86L82.26 51.75C83.09 50.87 84.42 50.76 85.38 51.43L85.65 51.66C86.53 52.49 86.64 53.82 85.97 54.78L85.74 55.05L69.27 72.39Z" fill="#FAFAFA"/>
</g>
<defs>
<clipPath id="clip0_1_627">
<rect width="132" height="132" fill="white"/>
</clipPath>
</defs>
</svg>
